X: 31831
T: Paudeen O'Rafferty
R: jig
M: 6/8
K: Dmixolydian
Bdd dBd|egg gfe|dBB BAG|ABA GED|
Bdd dB/c/d|egg gfe|dBB BAG|ABA GED||
DBA A2B|DBA AGE|GBA ABA|G3 GED|
DBA A2B|DBA AGE|GBA ABA|G3 GED||

